svg/weather/sunset_fill.svg

<?xml version="1.0" encoding="UTF-8"?>
<svg width="24px" height="24px" viewBox="0 0 24 24" version="1.1" xmlns="http://www.w3.org/2000/svg" xmlns:xlink="http://www.w3.org/1999/xlink">
    <title>sunset_fill</title>
    <g id="页面-1" stroke="none" stroke-width="1" fill="none" fill-rule="evenodd">
        <g id="Weather" transform="translate(-768.000000, -48.000000)" fill-rule="nonzero">
            <g id="sunset_fill" transform="translate(768.000000, 48.000000)">
                 <path d="M24,0 L24,24 L0,24 L0,0 L24,0 Z M12.5934901,23.257841 L12.5819402,23.2595131 L12.5108777,23.2950439 L12.4918791,23.2987469 L12.4918791,23.2987469 L12.4767152,23.2950439 L12.4056548,23.2595131 C12.3958229,23.2563662 12.3870493,23.2590235 12.3821421,23.2649074 L12.3780323,23.275831 L12.360941,23.7031097 L12.3658947,23.7234994 L12.3769048,23.7357139 L12.4804777,23.8096931 L12.4953491,23.8136134 L12.4953491,23.8136134 L12.5071152,23.8096931 L12.6106902,23.7357139 L12.6232938,23.7196733 L12.6232938,23.7196733 L12.6266527,23.7031097 L12.609561,23.275831 C12.6075724,23.2657013 12.6010112,23.2592993 12.5934901,23.257841 L12.5934901,23.257841 Z M12.8583906,23.1452862 L12.8445485,23.1473072 L12.6598443,23.2396597 L12.6498822,23.2499052 L12.6498822,23.2499052 L12.6471943,23.2611114 L12.6650943,23.6906389 L12.6699349,23.7034178 L12.6699349,23.7034178 L12.678386,23.7104931 L12.8793402,23.8032389 C12.8914285,23.8068999 12.9022333,23.8029875 12.9078286,23.7952264 L12.9118235,23.7811639 L12.8776777,23.1665331 C12.8752882,23.1545897 12.8674102,23.1470016 12.8583906,23.1452862 L12.8583906,23.1452862 Z M12.1430473,23.1473072 C12.1332178,23.1423925 12.1221763,23.1452606 12.1156365,23.1525954 L12.1099173,23.1665331 L12.0757714,23.7811639 C12.0751323,23.7926639 12.0828099,23.8018602 12.0926481,23.8045676 L12.108256,23.8032389 L12.3092106,23.7104931 L12.3186497,23.7024347 L12.3186497,23.7024347 L12.3225043,23.6906389 L12.340401,23.2611114 L12.337245,23.2485176 L12.337245,23.2485176 L12.3277531,23.2396597 L12.1430473,23.1473072 Z" id="MingCute" fill-rule="nonzero"></path>
                <path d="M12,9.99988 C15.3137,9.99988 18,12.6862 18,15.9999 C18,16.9934455 17.7581818,17.9307099 17.3308189,18.7557956 L17.1971,18.9999 L20,18.9999 C20.5523,18.9999 21,19.4476 21,19.9999 C21,20.51275 20.613973,20.9354092 20.1166239,20.9931725 L20,20.9999 L4,20.9999 C3.44772,20.9999 3,20.5522 3,19.9999 C3,19.48705 3.38604429,19.0643908 3.88337975,19.0066275 L4,18.9999 L6.80311,18.9999 C6.29267,18.1176 6,17.0929 6,15.9999 C6,12.6862 8.68629,9.99988 12,9.99988 Z M21,14.9999 C21.5523,14.9999 22,15.4476 22,15.9999 C22,16.5522 21.5523,16.9999 21,16.9999 L20,16.9999 C19.4477,16.9999 19,16.5522 19,15.9999 C19,15.4476 19.4477,14.9999 20,14.9999 L21,14.9999 Z M4,14.9999 C4.55228,14.9999 5,15.4476 5,15.9999 C5,16.5522 4.55228,16.9999 4,16.9999 L3,16.9999 C2.44772,16.9999 2,16.5522 2,15.9999 C2,15.4476 2.44772,14.9999 3,14.9999 L4,14.9999 Z M4.92891,8.92876 C5.28939,8.56827077 5.85662503,8.54054083 6.2489135,8.84557018 L6.34312,8.92876 L7.05023,9.6358625 C7.44075,10.0264 7.44075,10.6596 7.05023,11.0501 C6.68974077,11.4105615 6.12251355,11.4382893 5.73022044,11.1332834 L5.6360125,11.0501 L4.92891,10.343 C4.53838,9.95245 4.53838,9.31928 4.92891,8.92876 Z M19.0711,8.92877 C19.4616,9.3193 19.4616,9.95246 19.0711,10.343 L18.364,11.0501 C17.9734,11.4406 17.3403,11.4406 16.9498,11.0501 C16.5592,10.6596 16.5592,10.0264 16.9498,9.63588 L17.6569,8.92877 C18.0474,8.53825 18.6805,8.53825 19.0711,8.92877 Z M12,1.87988 C12.5523,1.87988 13,2.3276 13,2.87988 L13,5.58566 L13.4142,5.17145 C13.8047,4.78093 14.4379,4.78093 14.8284,5.17145 C15.2189,5.56198 15.2189,6.19514 14.8284,6.58566 L12.7071,8.70698 C12.3166,9.09751 11.6834,9.09751 11.2929,8.70698 L9.17156,6.58566 C8.78103,6.19514 8.78103,5.56198 9.17156,5.17145 C9.56208,4.78093 10.1952,4.78093 10.5858,5.17145 L11,5.58566 L11,2.87988 C11,2.3276 11.4477,1.87988 12,1.87988 Z" id="形状" fill="#09244B"></path>
            </g>
        </g>
    </g>
</svg>

<svg xmlns="http://www.w3.org/2000/svg" width="24" height="24"><g fill="none" fill-rule="nonzero"><path d="M24 0v24H0V0h24ZM12.593 23.258l-.011.002-.071.035-.02.004-.014-.004-.071-.035c-.01-.004-.019-.001-.024.005l-.004.01-.017.428.005.02.01.013.104.074.015.004.012-.004.104-.074.012-.016.004-.017-.017-.427c-.002-.01-.009-.017-.017-.018Zm.265-.113-.013.002-.185.093-.01.01-.003.011.018.43.005.012.008.007.201.093c.012.004.023 0 .029-.008l.004-.014-.034-.614c-.003-.012-.01-.02-.02-.022Zm-.715.002a.023.023 0 0 0-.027.006l-.006.014-.034.614c0 .012.007.02.017.024l.015-.002.201-.093.01-.008.004-.011.017-.43-.003-.012-.01-.01-.184-.092Z"/><path fill="#09244B" d="M12 10a6 6 0 0 1 5.33 8.756l-.133.244H20a1 1 0 0 1 .117 1.993L20 21H4a1 1 0 0 1-.117-1.993L4 19h2.803A6 6 0 0 1 12 10Zm9 5a1 1 0 1 1 0 2h-1a1 1 0 1 1 0-2h1ZM4 15a1 1 0 1 1 0 2H3a1 1 0 1 1 0-2h1Zm.929-6.071a1 1 0 0 1 1.32-.083l.094.083.707.707a1 1 0 0 1-1.32 1.497l-.094-.083-.707-.707a1 1 0 0 1 0-1.414Zm14.142 0a1 1 0 0 1 0 1.414l-.707.707a1 1 0 0 1-1.414-1.414l.707-.707a1 1 0 0 1 1.414 0ZM12 1.879a1 1 0 0 1 1 1v2.707l.414-.415a1 1 0 1 1 1.414 1.415l-2.12 2.121a1 1 0 0 1-1.415 0L9.172 6.586a1 1 0 1 1 1.414-1.415l.414.415V2.88a1 1 0 0 1 1-1Z"/></g></svg>
